X:1
T:Title
%%score { ( 1 3 ) | ( 2 4 ) }
L:1/8
M:4/4
K:Eb
V:1 treble nm="Grand Piano"
V:3 treble 
V:2 bass 
V:4 bass 
V:1
 z4 z2[Q:1/4=100] G2 | G3 G B2 A2 | G2 [DF]2 E2 B2 | c2 B2 A2 G2 | [DF]6 [DA]2 | %5
 [DA]3 [CDA] [B,DG]2 [A,DF]2 | [G,E]2 [CEG]2 [Ec]2 [Ec]2 | c3 F F2 G2 |[M:5/8] [DF]-[DF]- [DF]3 | %9
[M:3/8] BcB |[M:4/4] e6 z2 | B6 z2 | c2 c2 B2 G2 | F6 z2 | e6 z2 | %15
[M:17/16] c/-c/-c/-c/-c/-c/-c/-c/-c/-c-<c z/ z/ z |[M:4/4] [EB]3 [A,CA] [A,DF]2 [A,DG]2 | %17
[M:3/4] E6 |] %18
V:2
 z4 z2 [E,B,E]2 | [E,B,E]3 [E,B,E] [E,_DE]2 [E,CE]2 | [E,B,E]2 [B,,A,]2 [E,G,]2 [G,B,E]2 | %3
 [A,E]2 [G,B,E]2 [F,B,D]2 [E,B,E]2 | [B,,B,]6 [B,,F,]2 | [B,,F,]3 B,, B,,2 =B,,2 | %6
 C,2 C,2 [C,G,]2 [C,G,]2 | [F,=A,E]3 [F,A,E] [F,A,E]2 [F,A,E]2 |[M:5/8] [B,,B,]-[B,,B,]- [B,,B,]3 | %9
[M:3/8] z3 |[M:4/4] z [E,B,][E,D][E,C] .[E,B,]2 z2 | z [A,C][G,B,][F,A,] [E,G,]2 [E,G,E]2 | %12
 [A,E]2 [A,E]2 [G,B,E]2 [E,B,E]2 | B,,B,,=A,,[C,=A,] .[B,,B,]2 z2 | %14
 z [E,B,][E,D][E,C] [E,B,][_D,B,][C,A,][B,,G,] | %15
[M:17/16] [A,,A,]A,[G,B,][B,,G,][=A,,F,]/-[A,,F,]-<[A,,F,][A,,_G,]-<[A,,G,] | %16
[M:4/4] [B,,G,]3 F, B,,2 B,,2 |[M:3/4] z2 A,2 G,2 |] %18
V:3
 x8 | x8 | x8 | x8 | x8 | x8 | x8 | x8 |[M:5/8] x5 |[M:3/8] x3 |[M:4/4] z GBA Gecd | z FED E2 B2 | %12
 x8 | [B,D][B,D][CE]E DBcB | z GBA G[EG][EA][EB] |[M:17/16] EE=EEF_E>[Ec]-[Ec]3/2 |[M:4/4] x8 | %17
[M:3/4] G,2 C2 B,2 |] %18
V:4
 x8 | x8 | x8 | x8 | x8 | x8 | x8 | x8 |[M:5/8] x5 |[M:3/8] x3 |[M:4/4] x8 | x8 | x8 | x8 | x8 | %15
[M:17/16] x17/2 |[M:4/4] x8 |[M:3/4] E,6 |] %18

